assets/img/hero-btn-box.svg

<svg fill="none" height="56" viewBox="0 0 56 56" width="56" xmlns="http://www.w3.org/2000/svg"><circle cx="28" cy="28" fill="#fff" r="28"/><g fill="#202f42"><path d="m22.6848 32.0515c1.9028-3.8739 2.8542-5.8108 4.2237-6.2724.7088-.2388 1.4742-.2388 2.183 0 1.3695.4616 2.3209 2.3985 4.2237 6.2724l1.0545 2.1469c.4916 1.0007.7373 1.501.7956 1.842.2414 1.4144-.8051 2.7181-2.2148 2.7591-.3398.0099-.8705-.1355-1.9318-.4264-.6065-.1662-.9098-.2493-1.2131-.3107-1.1921-.2412-2.4191-.2412-3.6112 0-.3033.0614-.6066.1445-1.2131.3107-1.0613.2909-1.592.4363-1.9318.4264-1.4097-.041-2.4562-1.3447-2.2147-2.7591.0582-.341.3039-.8413.7955-1.842z"/><path d="m20.9737 20.233c.4942 1.9569 1.8916 3.2599 3.1211 2.9103s1.8257-2.2193 1.3315-4.1762c-.4942-1.957-1.8916-3.26-3.1211-2.9104s-1.8257 2.2193-1.3315 4.1763z"/><path d="m35.0263 20.233c-.4942 1.9569-1.8916 3.2599-3.1211 2.9103s-1.8257-2.2193-1.3315-4.1762c.4942-1.957 1.8916-3.26 3.1211-2.9104s1.8257 2.2193 1.3315 4.1763z"/><path d="m16.242 28.3565c.54 1.4461 1.8096 2.3244 2.8358 1.9618 1.0261-.3626 1.4202-1.8288.8802-3.2748-.54-1.4461-1.8096-2.3244-2.8358-1.9618-1.0261.3626-1.4202 1.8288-.8802 3.2748z"/><path d="m39.758 28.3565c-.54 1.4461-1.8096 2.3244-2.8358 1.9618-1.0261-.3626-1.4202-1.8288-.8802-3.2748.54-1.4461 1.8096-2.3244 2.8358-1.9618 1.0261.3626 1.4202 1.8288.8802 3.2748z"/></g></svg>

<svg width="56" height="56" viewBox="0 0 56 56" fill="none" xmlns="http://www.w3.org/2000/svg">
<circle cx="28" cy="28" r="28" fill="white"/>
<path d="M22.6848 32.0515C24.5876 28.1776 25.539 26.2407 26.9085 25.7791C27.6173 25.5403 28.3827 25.5403 29.0915 25.7791C30.461 26.2407 31.4124 28.1776 33.3152 32.0515L34.3697 34.1984C34.8613 35.1991 35.107 35.6994 35.1653 36.0404C35.4067 37.4548 34.3602 38.7585 32.9505 38.7995C32.6107 38.8094 32.08 38.664 31.0187 38.3731C30.4122 38.2069 30.1089 38.1238 29.8056 38.0624C28.6135 37.8212 27.3865 37.8212 26.1944 38.0624C25.8911 38.1238 25.5878 38.2069 24.9813 38.3731C23.92 38.664 23.3893 38.8094 23.0495 38.7995C21.6398 38.7585 20.5933 37.4548 20.8348 36.0404C20.893 35.6994 21.1387 35.1991 21.6303 34.1984L22.6848 32.0515Z" fill="#202F42"/>
<path d="M20.9737 20.233C21.4679 22.1899 22.8653 23.4929 24.0948 23.1433C25.3243 22.7937 25.9205 20.924 25.4263 18.9671C24.9321 17.0101 23.5347 15.7071 22.3052 16.0567C21.0757 16.4063 20.4795 18.276 20.9737 20.233Z" fill="#202F42"/>
<path d="M35.0263 20.233C34.5321 22.1899 33.1347 23.4929 31.9052 23.1433C30.6757 22.7937 30.0795 20.924 30.5737 18.9671C31.0679 17.0101 32.4653 15.7071 33.6948 16.0567C34.9243 16.4063 35.5205 18.276 35.0263 20.233Z" fill="#202F42"/>
<path d="M16.242 28.3565C16.782 29.8026 18.0516 30.6809 19.0778 30.3183C20.1039 29.9557 20.498 28.4895 19.958 27.0435C19.418 25.5974 18.1484 24.7191 17.1222 25.0817C16.0961 25.4443 15.702 26.9105 16.242 28.3565Z" fill="#202F42"/>
<path d="M39.758 28.3565C39.218 29.8026 37.9484 30.6809 36.9222 30.3183C35.8961 29.9557 35.502 28.4895 36.042 27.0435C36.582 25.5974 37.8516 24.7191 38.8778 25.0817C39.9039 25.4443 40.298 26.9105 39.758 28.3565Z" fill="#202F42"/>
</svg>
